SVG_Azure_Grouped/Application/Function App File.svg

<?xml version="1.0" encoding="UTF-8" standalone="no"?>
<!-- Generated by Microsoft Visio, SVG Export Function App File.svg Page-1 -->

<svg
   xmlns:dc="http://purl.org/dc/elements/1.1/"
   xmlns:cc="http://creativecommons.org/ns#"
   xmlns:rdf="http://www.w3.org/1999/02/22-rdf-syntax-ns#"
   xmlns:svg="http://www.w3.org/2000/svg"
   xmlns="http://www.w3.org/2000/svg"
   xmlns:sodipodi="http://sodipodi.sourceforge.net/DTD/sodipodi-0.dtd"
   xmlns:inkscape="http://www.inkscape.org/namespaces/inkscape"
   width="0.78735948in"
   height="0.62993622in"
   viewBox="0 0 56.68979 45.355505"
   xml:space="preserve"
   class="st6"
   version="1.1"
   id="svg75"
   sodipodi:docname="Function App File.svg"
   style="font-size:12px;overflow:visible;color-interpolation-filters:sRGB;fill:none;fill-rule:evenodd;stroke-linecap:square;stroke-miterlimit:3"
   inkscape:version="0.92.5 (2060ec1f9f, 2020-04-08)"><metadata
   id="metadata79"><rdf:RDF><cc:Work
       rdf:about=""><dc:format>image/svg+xml</dc:format><dc:type
         rdf:resource="http://purl.org/dc/dcmitype/StillImage" /></cc:Work></rdf:RDF></metadata><sodipodi:namedview
   pagecolor="#ffffff"
   bordercolor="#666666"
   borderopacity="1"
   objecttolerance="10"
   gridtolerance="10"
   guidetolerance="10"
   inkscape:pageopacity="0"
   inkscape:pageshadow="2"
   inkscape:window-width="640"
   inkscape:window-height="480"
   id="namedview77"
   showgrid="false"
   inkscape:zoom="1.5612629"
   inkscape:cx="37.795262"
   inkscape:cy="30.225663"
   inkscape:window-x="0"
   inkscape:window-y="0"
   inkscape:window-maximized="0"
   inkscape:current-layer="svg75" />
	<style
   type="text/css"
   id="style2">
	<![CDATA[
		.st1 {fill:url(#grad0-6);stroke:none;stroke-linecap:butt;stroke-width:34}
		.st2 {fill:#0078d4;stroke:none;stroke-linecap:butt;stroke-width:34}
		.st3 {fill:url(#grad0-12);stroke:none;stroke-linecap:butt;stroke-width:34}
		.st4 {fill:#f2f2f2;stroke:none;stroke-linecap:butt;stroke-width:34}
		.st5 {fill:url(#grad0-18);stroke:none;stroke-linecap:butt;stroke-width:34}
		.st6 {fill:none;fill-rule:evenodd;font-size:12px;overflow:visible;stroke-linecap:square;stroke-miterlimit:3}
	]]>
	</style>

	<defs
   id="Patterns_And_Gradients">
		<linearGradient
   id="grad0-6"
   x1="0"
   y1="104.3574"
   x2="43.474643"
   y2="104.3574"
   gradientTransform="scale(1.3039785,0.76688381)"
   gradientUnits="userSpaceOnUse">
			<stop
   offset="0"
   stop-color="#0078d4"
   stop-opacity="1"
   id="stop4" />
			<stop
   offset="0.5"
   stop-color="#4093e6"
   stop-opacity="1"
   id="stop6" />
			<stop
   offset="0.775"
   stop-color="#5ea0ef"
   stop-opacity="1"
   id="stop8" />
		</linearGradient>
		<linearGradient
   id="grad0-12"
   x1="-0.0079792049"
   y1="44.820975"
   x2="5.979941"
   y2="44.820975"
   gradientTransform="scale(0.44816495,2.2313213)"
   gradientUnits="userSpaceOnUse">
			<stop
   offset="0"
   stop-color="#5ea0ef"
   stop-opacity="1"
   id="stop11" />
			<stop
   offset="0.37"
   stop-color="#9fc6f5"
   stop-opacity="1"
   id="stop13" />
			<stop
   offset="0.8"
   stop-color="#e4effc"
   stop-opacity="1"
   id="stop15" />
			<stop
   offset="1"
   stop-color="#ffffff"
   stop-opacity="1"
   id="stop17" />
		</linearGradient>
		<linearGradient
   id="grad0-18"
   x1="0"
   y1="44.799297"
   x2="5.9901609"
   y2="44.799297"
   gradientTransform="scale(0.44799732,2.2321562)"
   gradientUnits="userSpaceOnUse">
			<stop
   offset="0"
   stop-color="#ffffff"
   stop-opacity="1"
   id="stop20" />
			<stop
   offset="0.2"
   stop-color="#e4effc"
   stop-opacity="1"
   id="stop22" />
			<stop
   offset="0.63"
   stop-color="#9fc6f5"
   stop-opacity="1"
   id="stop24" />
			<stop
   offset="1"
   stop-color="#5ea0ef"
   stop-opacity="1"
   id="stop26" />
		</linearGradient>
	</defs>
	<g
   id="g73"
   transform="translate(-34.000229,-33.998791)">
		<title
   id="title30">Page-1</title>
		<g
   id="group13917-1"
   transform="translate(34,-34.0157)">
			<title
   id="title32">Function App File.13917</title>
			<g
   id="group13918-2">
				<title
   id="title34">MsPortalFx.base.images-27</title>
				<g
   id="shape13919-3">
					<title
   id="title36">Sheet.13919</title>
					<path
   d="m 0,80.03 h 56.69 v 31.46 a 1.89421,1.88479 0 0 1 -1.89,1.88 H 1.89 A 1.89421,1.88479 0 0 1 0,111.49 Z"
   class="st1"
   id="path38"
   inkscape:connector-curvature="0"
   style="fill:url(#grad0-6);stroke:none;stroke-width:34;stroke-linecap:butt" />
				</g>
				<g
   id="shape13920-7"
   transform="translate(0,-33.3355)">
					<title
   id="title41">Sheet.13920</title>
					<path
   d="m 1.9,101.35 h 52.89 a 1.89421,1.88479 0 0 1 1.89,1.89 v 10.13 H 0 v -10.13 a 1.89421,1.88479 0 0 1 1.9,-1.89 z"
   class="st2"
   id="path43"
   inkscape:connector-curvature="0"
   style="fill:#0078d4;stroke:none;stroke-width:34;stroke-linecap:butt" />
				</g>
				<g
   id="shape13921-9"
   transform="rotate(-44.919,-0.00682801,85.216201)">
					<title
   id="title46">Sheet.13921</title>
					<path
   d="m 1.05,100.01 h 1.63 v 12.84 a 0.523576,0.520971 0 0 1 -0.523576,0.52097 L 0.52,113.37 a 0.523576,0.520971 0 0 1 -0.523576,-0.52097 L 0,101.05 a 1.04715,1.04194 0 0 1 1.05,-1.04 z"
   class="st3"
   id="path48"
   inkscape:connector-curvature="0"
   style="fill:url(#grad0-12);stroke:none;stroke-width:34;stroke-linecap:butt" />
				</g>
				<g
   id="shape13922-13"
   transform="translate(10.8419,-15.795)">
					<title
   id="title51">Sheet.13922</title>
					<path
   d="m 1.46,113.37 -1.15,-1.15 a 1.04715,1.04194 0 0 1 0,-1.47 l 8.54,-8.48 a 0.523576,0.520971 0 0 1 0.740343,0 L 10.74,103.42 a 0.523576,0.520971 0 0 1 0,0.73666 z"
   class="st4"
   id="path53"
   inkscape:connector-curvature="0"
   style="fill:#f2f2f2;stroke:none;stroke-width:34;stroke-linecap:butt" />
				</g>
				<g
   id="shape13923-15"
   transform="rotate(-135.081,19.144761,95.104044)">
					<title
   id="title56">Sheet.13923</title>
					<path
   d="m 0.52,100 h 1.64 a 0.523576,0.520971 0 0 1 0.523576,0.52097 L 2.68,113.37 H 1.05 A 1.04715,1.04194 0 0 1 0,112.33 v -11.81 a 0.523576,0.520971 0 0 1 0.523576,-0.520971 z"
   class="st5"
   id="path58"
   inkscape:connector-curvature="0"
   style="fill:url(#grad0-18);stroke:none;stroke-width:34;stroke-linecap:butt" />
				</g>
				<g
   id="shape13924-19"
   transform="translate(34.2759,-15.7917)">
					<title
   id="title61">Sheet.13924</title>
					<path
   d="m 0.15,103.43 1.16,-1.16 a 0.523576,0.520971 0 0 1 0.740343,0 L 10.58,110.75 a 1.04715,1.04194 0 0 1 0.01,1.47 l -1.15,1.15 -9.28,-9.2 a 0.523576,0.520971 0 0 1 -0.00667,-0.7433 z"
   class="st4"
   id="path63"
   inkscape:connector-curvature="0"
   style="fill:#f2f2f2;stroke:none;stroke-width:34;stroke-linecap:butt" />
				</g>
				<g
   id="shape13925-21"
   transform="rotate(17.752,31.781756,183.96972)">
					<title
   id="title66">Sheet.13925</title>
					<path
   d="m 0,113 a 0.373515,0.371657 -180 0 0 0.373506,0.37165 L 2.31,113.37 a 0.373515,0.371657 -180 0 0 0.373506,-0.37165 L 2.69,88.41 A 0.373515,0.371657 -180 0 0 2.316494,88.038352 L 0.37,88.04 a 0.373515,0.371657 -180 0 0 -0.373506,0.371648 z"
   class="st4"
   id="path68"
   inkscape:connector-curvature="0"
   style="fill:#f2f2f2;stroke:none;stroke-width:34;stroke-linecap:butt" />
				</g>
			</g>
		</g>
	</g>
</svg>

<?xml version="1.0" encoding="UTF-8" standalone="no"?>
<!DOCTYPE svg PUBLIC "-//W3C//DTD SVG 1.1//EN" "http://www.w3.org/Graphics/SVG/1.1/DTD/svg11.dtd">
<!-- Generated by Microsoft Visio, SVG Export Function App File.svg Page-1 -->
<svg xmlns="http://www.w3.org/2000/svg" xmlns:xlink="http://www.w3.org/1999/xlink" xmlns:ev="http://www.w3.org/2001/xml-events"
		width="1.73185in" height="1.57458in" viewBox="0 0 124.693 113.37" xml:space="preserve" color-interpolation-filters="sRGB"
		class="st6">
	<style type="text/css">
	<![CDATA[
		.st1 {fill:url(#grad0-6);stroke:none;stroke-linecap:butt;stroke-width:34}
		.st2 {fill:#0078d4;stroke:none;stroke-linecap:butt;stroke-width:34}
		.st3 {fill:url(#grad0-12);stroke:none;stroke-linecap:butt;stroke-width:34}
		.st4 {fill:#f2f2f2;stroke:none;stroke-linecap:butt;stroke-width:34}
		.st5 {fill:url(#grad0-18);stroke:none;stroke-linecap:butt;stroke-width:34}
		.st6 {fill:none;fill-rule:evenodd;font-size:12px;overflow:visible;stroke-linecap:square;stroke-miterlimit:3}
	]]>
	</style>

	<defs id="Patterns_And_Gradients">
		<linearGradient id="grad0-6" x1="0" y1="0" x2="1" y2="0" gradientTransform="rotate(-90 0.5 0.5)">
			<stop offset="0" stop-color="#0078d4" stop-opacity="1"/>
			<stop offset="0.5" stop-color="#4093e6" stop-opacity="1"/>
			<stop offset="0.775" stop-color="#5ea0ef" stop-opacity="1"/>
		</linearGradient>
		<linearGradient id="grad0-12" x1="0" y1="0" x2="1" y2="0" gradientTransform="rotate(44.919 0.5 0.5)">
			<stop offset="0" stop-color="#5ea0ef" stop-opacity="1"/>
			<stop offset="0.37" stop-color="#9fc6f5" stop-opacity="1"/>
			<stop offset="0.8" stop-color="#e4effc" stop-opacity="1"/>
			<stop offset="1" stop-color="#ffffff" stop-opacity="1"/>
		</linearGradient>
		<linearGradient id="grad0-18" x1="0" y1="0" x2="1" y2="0" gradientTransform="rotate(135.081 0.5 0.5)">
			<stop offset="0" stop-color="#ffffff" stop-opacity="1"/>
			<stop offset="0.2" stop-color="#e4effc" stop-opacity="1"/>
			<stop offset="0.63" stop-color="#9fc6f5" stop-opacity="1"/>
			<stop offset="1" stop-color="#5ea0ef" stop-opacity="1"/>
		</linearGradient>
	</defs>
	<g>
		<title>Page-1</title>
		<g id="group13570-1" transform="translate(34,-34.0157)">
			<title>Function App File.13570</title>
			<g id="group13571-2">
				<title>MsPortalFx.base.images-27</title>
				<g id="shape13572-3">
					<title>Sheet.13572</title>
					<path d="M0 80.03 L56.69 80.03 L56.69 111.49 A1.89421 1.88479 0 0 1 54.8 113.37 L1.89 113.37 A1.89421 1.88479
								 0 0 1 0 111.49 L0 80.03 Z" class="st1"/>
				</g>
				<g id="shape13573-7" transform="translate(0,-33.3355)">
					<title>Sheet.13573</title>
					<path d="M1.9 101.35 L54.79 101.35 A1.89421 1.88479 0 0 1 56.68 103.24 L56.68 113.37 L0 113.37 L0 103.24 A1.89421
								 1.88479 0 0 1 1.9 101.35 Z" class="st2"/>
				</g>
				<g id="shape13574-9" transform="translate(-60.1737,24.8693) rotate(-44.919)">
					<title>Sheet.13574</title>
					<path d="M1.05 100.01 L2.68 100.01 L2.68 112.85 a0.523576 0.520971 0 0 1 -0.523576 0.520971 L0.52 113.37 a0.523576
								 0.520971 0 0 1 -0.523576 -0.520971 L0 101.05 A1.04715 1.04194 0 0 1 1.05 100.01 L1.05 100.01 Z"
							class="st3"/>
				</g>
				<g id="shape13575-13" transform="translate(10.8419,-15.795)">
					<title>Sheet.13575</title>
					<path d="M1.46 113.37 L0.31 112.22 A1.04715 1.04194 0 0 1 0.31 110.75 L8.85 102.27 a0.523576 0.520971 0 0 1 0.740343
								 0 L10.74 103.42 a0.523576 0.520971 0 0 1 1.77636E-15 0.736659 L1.46 113.37 L1.46 113.37 Z"
							class="st4"/>
				</g>
				<g id="shape13576-15" transform="translate(-34.4523,175.966) rotate(-135.081)">
					<title>Sheet.13576</title>
					<path d="M0.52 100 L2.16 100 a0.523576 0.520971 0 0 1 0.523576 0.520971 L2.68 113.37 L1.05 113.37 A1.04715 1.04194
								 0 0 1 0 112.33 L0 100.52 a0.523576 0.520971 0 0 1 0.523576 -0.520971 L0.52 100 Z" class="st5"/>
				</g>
				<g id="shape13577-19" transform="translate(34.2759,-15.7917)">
					<title>Sheet.13577</title>
					<path d="M0.15 103.43 L1.31 102.27 a0.523576 0.520971 0 0 1 0.740343 0 L10.58 110.75 A1.04715 1.04194 0 0 1 10.59
								 112.22 L9.44 113.37 L0.16 104.17 a0.523576 0.520971 0 0 1 -0.00666975 -0.743296 Z" class="st4"/>
				</g>
				<g id="shape13578-21" transform="translate(57.6052,-0.93049) rotate(17.752)">
					<title>Sheet.13578</title>
					<path d="M0 113 a0.373515 0.371657 -180 0 0 0.373506 0.371648 L2.31 113.37 a0.373515 0.371657 -180 0 0 0.373506
								 -0.371648 L2.69 88.41 a0.373515 0.371657 -180 0 0 -0.373506 -0.371648 L0.37 88.04 a0.373515 0.371657
								 -180 0 0 -0.373506 0.371648 L0 113 Z" class="st4"/>
				</g>
			</g>
		</g>
	</g>
</svg>
